elements/app-hax/lib/assets/images/Logout.svg

<svg xmlns="http://www.w3.org/2000/svg" fill="none" width="284" height="33" viewBox="0 0 284 33"><path d="M0 6v21h6v6h272v-6h6V6h-6V0H6v6H0Zm9-3v6H3v15h6v6h265.99l.01-6h6V9h-6V3H9Z" fill="#000" fill-rule="evenodd" clip-rule="evenodd"/><path d="M3 9h6V3h266v6h6v15h-6v6H9v-6H3V9Z" fill="#77C763"/><path d="M9 30v-9h272v3h-6v6H9Z" fill="#64AD52"/><path d="M9 6v9h3v-3h260v3h3V6H9Z" fill="#8FE27A"/></svg>

<svg width="284" height="33" viewBox="0 0 284 33" fill="none" xmlns="http://www.w3.org/2000/svg">
<path fill-rule="evenodd" clip-rule="evenodd" d="M0 6.00004V27H6V33H278V27H284V6H278V0H6V6.00004H0ZM9 3V9.00004H3V24H9V30H274.99L275 24H281V9H275V3H9Z" fill="black"/>
<path d="M3 9H9V3H275V9H281V24H275V30H9V24H3V9Z" fill="#77C763"/>
<path d="M9 30V21H281V24H275V30H9Z" fill="#64AD52"/>
<path d="M9 6V15H12V12H272V15H275V6H9Z" fill="#8FE27A"/>
</svg>
